apps/www/public/images/realtime/example-apps/dark/live-cursors.svg

<svg width="361" height="210" viewBox="0 0 361 210" fill="none" xmlns="http://www.w3.org/2000/svg">
<g clip-path="url(#clip0_1125_17697)">
<path d="M49.5 254V101H433.5" stroke="#A0A0A0" stroke-miterlimit="10"/>
<path d="M54.5 97H45.5V106H54.5V97Z" fill="#ECEDEE"/>
<path d="M212.289 87.9403L197.582 50.5535C197.224 49.6466 198.098 48.7462 199.011 49.0659L237.631 62.5917C238.617 62.9375 238.656 64.3142 237.69 64.7122L221.809 71.25C221.535 71.3609 221.313 71.5828 221.196 71.8568L214.39 87.9664C213.992 88.906 212.661 88.8864 212.289 87.9403ZM316.098 91.3593C316.098 82.0615 308.562 74.5254 299.264 74.5254H239.36C230.063 74.5254 222.527 82.0615 222.527 91.3593C222.527 100.657 230.063 108.193 239.36 108.193H299.264C308.562 108.193 316.098 100.657 316.098 91.3593Z" fill="#3FCF8E"/>
<path fill-rule="evenodd" clip-rule="evenodd" d="M257.153 94.1453C258.667 94.1453 259.894 92.9184 259.894 91.4049C259.894 89.8915 258.667 88.6646 257.153 88.6646C255.64 88.6646 254.413 89.8915 254.413 91.4049C254.413 92.9184 255.64 94.1453 257.153 94.1453ZM267.815 94.1453C269.328 94.1453 270.555 92.9184 270.555 91.4049C270.555 89.8915 269.328 88.6646 267.815 88.6646C266.301 88.6646 265.074 89.8915 265.074 91.4049C265.074 92.9184 266.301 94.1453 267.815 94.1453ZM281.209 91.4049C281.209 92.9184 279.982 94.1453 278.469 94.1453C276.955 94.1453 275.729 92.9184 275.729 91.4049C275.729 89.8915 276.955 88.6646 278.469 88.6646C279.982 88.6646 281.209 89.8915 281.209 91.4049Z" fill="#ECEDEE"/>
<path d="M67.1692 140.436L73.8775 124.547C73.9949 124.273 74.2103 124.057 74.4843 123.946L90.1521 117.499C91.1048 117.108 91.0657 115.744 90.0934 115.404L51.9909 102.066C51.0838 101.747 50.229 102.641 50.5814 103.535L65.0876 140.417C65.453 141.35 66.7712 141.369 67.1627 140.443L67.1692 140.436ZM75.1891 143.784C75.1891 134.609 82.6282 127.176 91.7965 127.176H150.892C160.066 127.176 167.499 134.616 167.499 143.784C167.499 152.959 160.06 160.391 150.892 160.391H91.7965C82.6216 160.391 75.1891 152.952 75.1891 143.784Z" fill="#A0A0A0"/>
<path d="M112.826 148V146.159H107.526L112.756 139.911V138.112H105.225V139.939H110.19L105.044 146.131V148H112.826ZM113.993 146.131C113.993 147.205 114.885 148.195 116.35 148.195C117.368 148.195 118.023 147.721 118.372 147.177C118.372 147.442 118.4 147.819 118.442 148H120.143C120.101 147.763 120.059 147.275 120.059 146.912V143.537C120.059 142.156 119.251 140.929 117.075 140.929C115.234 140.929 114.244 142.115 114.132 143.188L115.778 143.537C115.834 142.937 116.28 142.421 117.089 142.421C117.87 142.421 118.246 142.826 118.246 143.314C118.246 143.551 118.121 143.746 117.73 143.802L116.043 144.053C114.899 144.22 113.993 144.904 113.993 146.131ZM116.74 146.815C116.14 146.815 115.848 146.424 115.848 146.02C115.848 145.49 116.224 145.225 116.698 145.155L118.246 144.918V145.225C118.246 146.438 117.521 146.815 116.74 146.815ZM124.984 142.645C125.905 142.645 126.337 143.23 126.504 143.802L128.164 143.244C127.871 142.087 126.811 140.929 124.942 140.929C122.948 140.929 121.386 142.449 121.386 144.569C121.386 146.675 122.976 148.209 124.998 148.209C126.825 148.209 127.899 147.038 128.206 145.894L126.574 145.35C126.421 145.88 125.946 146.508 124.998 146.508C124.05 146.508 123.241 145.81 123.241 144.569C123.241 143.328 124.036 142.645 124.984 142.645ZM131.425 143.969C131.467 143.216 131.927 142.631 132.708 142.631C133.6 142.631 133.977 143.23 133.977 143.997V148H135.832V143.677C135.832 142.17 135.023 140.957 133.28 140.957C132.624 140.957 131.871 141.18 131.425 141.71V137.903H129.57V148H131.425V143.969Z" fill="#ECEDEE"/>
</g>
<defs>
<clipPath id="clip0_1125_17697">
<rect width="360" height="210" fill="white" transform="translate(0.5)"/>
</clipPath>
</defs>
</svg>

<svg xmlns="http://www.w3.org/2000/svg" width="361" height="210" fill="none" viewBox="0 0 361 210"><g clip-path="url(#a)"><path stroke="#a0a0a0" stroke-miterlimit="10" d="M49.5 254V101h384"/><path fill="#ecedee" d="M54.5 97h-9v9h9z"/><path fill="#3fcf8e" d="m212.289 87.94-14.707-37.386c-.358-.907.516-1.808 1.429-1.488l38.62 13.526c.986.346 1.025 1.722.059 2.12l-15.881 6.538c-.274.11-.496.333-.613.607l-6.806 16.11c-.398.939-1.729.92-2.101-.027m103.809 3.42c0-9.299-7.536-16.835-16.834-16.835H239.36c-9.297 0-16.833 7.536-16.833 16.834s7.536 16.834 16.833 16.834h59.904c9.298 0 16.834-7.536 16.834-16.834"/><path fill="#ecedee" fill-rule="evenodd" d="M257.153 94.145a2.74 2.74 0 1 0 0-5.48 2.74 2.74 0 0 0 0 5.48m10.662 0a2.74 2.74 0 1 0 0-5.48 2.74 2.74 0 0 0 0 5.48m13.394-2.74a2.74 2.74 0 1 1-5.48 0 2.74 2.74 0 0 1 5.48 0" clip-rule="evenodd"/><path fill="#a0a0a0" d="m67.17 140.436 6.707-15.889c.118-.274.333-.49.607-.601l15.668-6.447c.953-.391.914-1.755-.059-2.095l-38.102-13.338c-.907-.319-1.762.575-1.41 1.469l14.507 36.882c.365.933 1.683.952 2.075.026zm8.02 3.348c0-9.175 7.438-16.608 16.606-16.608h59.096c9.174 0 16.607 7.44 16.607 16.608 0 9.175-7.439 16.607-16.607 16.607H91.797c-9.175 0-16.608-7.439-16.608-16.607"/><path fill="#ecedee" d="M112.826 148v-1.841h-5.3l5.23-6.248v-1.799h-7.531v1.827h4.965l-5.146 6.192V148zm1.167-1.869c0 1.074.892 2.064 2.357 2.064 1.018 0 1.673-.474 2.022-1.018 0 .265.028.642.07.823h1.701a8 8 0 0 1-.084-1.088v-3.375c0-1.381-.808-2.608-2.984-2.608-1.841 0-2.831 1.186-2.943 2.259l1.646.349c.056-.6.502-1.116 1.311-1.116.781 0 1.157.405 1.157.893 0 .237-.125.432-.516.488l-1.687.251c-1.144.167-2.05.851-2.05 2.078m2.747.684c-.6 0-.892-.391-.892-.795 0-.53.376-.795.85-.865l1.548-.237v.307c0 1.213-.725 1.59-1.506 1.59m8.244-4.17c.921 0 1.353.585 1.52 1.157l1.66-.558c-.293-1.157-1.353-2.315-3.222-2.315-1.994 0-3.556 1.52-3.556 3.64 0 2.106 1.59 3.64 3.612 3.64 1.827 0 2.901-1.171 3.208-2.315l-1.632-.544c-.153.53-.628 1.158-1.576 1.158s-1.757-.698-1.757-1.939.795-1.924 1.743-1.924m6.441 1.324c.042-.753.502-1.338 1.283-1.338.892 0 1.269.599 1.269 1.366V148h1.855v-4.323c0-1.507-.809-2.72-2.552-2.72-.656 0-1.409.223-1.855.753v-3.807h-1.855V148h1.855z"/></g><defs><clipPath id="a"><path fill="#fff" d="M.5 0h360v210H.5z"/></clipPath></defs></svg>
